html-practice-pages/web-app-images/plus.svg

<svg xmlns="http://www.w3.org/2000/svg" viewBox="0 0 640 640"><!--!Font Awesome Free 7.2.0 by @fontawesome - https://fontawesome.com License - https://fontawesome.com/license/free Copyright 2026 Fonticons, Inc.--><path d="M160 144c-8.8 0-16 7.2-16 16v320c0 8.8 7.2 16 16 16h320c8.8 0 16-7.2 16-16V160c0-8.8-7.2-16-16-16H160zm-64 16c0-35.3 28.7-64 64-64h320c35.3 0 64 28.7 64 64v320c0 35.3-28.7 64-64 64H160c-35.3 0-64-28.7-64-64V160zm200 248v-64h-64c-13.3 0-24-10.7-24-24s10.7-24 24-24h64v-64c0-13.3 10.7-24 24-24s24 10.7 24 24v64h64c13.3 0 24 10.7 24 24s-10.7 24-24 24h-64v64c0 13.3-10.7 24-24 24s-24-10.7-24-24z"/></svg>

<svg xmlns="http://www.w3.org/2000/svg" viewBox="0 0 640 640"><!--!Font Awesome Free 7.2.0 by @fontawesome - https://fontawesome.com License - https://fontawesome.com/license/free Copyright 2026 Fonticons, Inc.--><path d="M160 144C151.2 144 144 151.2 144 160L144 480C144 488.8 151.2 496 160 496L480 496C488.8 496 496 488.8 496 480L496 160C496 151.2 488.8 144 480 144L160 144zM96 160C96 124.7 124.7 96 160 96L480 96C515.3 96 544 124.7 544 160L544 480C544 515.3 515.3 544 480 544L160 544C124.7 544 96 515.3 96 480L96 160zM296 408L296 344L232 344C218.7 344 208 333.3 208 320C208 306.7 218.7 296 232 296L296 296L296 232C296 218.7 306.7 208 320 208C333.3 208 344 218.7 344 232L344 296L408 296C421.3 296 432 306.7 432 320C432 333.3 421.3 344 408 344L344 344L344 408C344 421.3 333.3 432 320 432C306.7 432 296 421.3 296 408z"/></svg>
